static/assets/img/logos/brand/apple.svg

<svg fill="none" height="36" viewBox="0 0 30 36" width="30" xmlns="http://www.w3.org/2000/svg"><path d="m24.6211 19.1257c.0508 5.448 4.8065 7.2609 4.8592 7.284-.0402.1278-.7599 2.5835-2.5055 5.1201-1.5091 2.1931-3.0752 4.3781-5.5424 4.4233-2.4243.0445-3.2038-1.4293-5.9754-1.4293-2.7708 0-3.6369 1.3841-5.93174 1.4738-2.38146.0897-4.19499-2.3714-5.71649-4.5565-3.109155-4.4695-5.48519-12.6297-2.29478-18.138 1.58493-2.7354 4.41732-4.46765 7.49163-4.51206 2.33858-.04436 4.54578 1.56436 5.97538 1.56436 1.4288 0 4.111-1.93463 6.9309-1.6505 1.1805.04885 4.4942.47414 6.6219 3.571-.1715.1057-3.9539 2.2951-3.9127 6.8498zm-4.5562-13.37776c1.2644-1.52174 2.1153-3.64014 1.8832-5.74794-1.8225.0728312-4.0262 1.20753-5.3334 2.72844-1.1715 1.34683-2.1975 3.50251-1.9206 5.56859 2.0313.15627 4.1064-1.02638 5.3708-2.54909z" fill="#000"/></svg>

<svg width="30" height="36" viewBox="0 0 30 36" fill="none" xmlns="http://www.w3.org/2000/svg">
<path d="M24.6211 19.1257C24.6719 24.5737 29.4276 26.3866 29.4803 26.4097C29.4401 26.5375 28.7204 28.9932 26.9748 31.5298C25.4657 33.7229 23.8996 35.9079 21.4324 35.9531C19.0081 35.9976 18.2286 34.5238 15.457 34.5238C12.6862 34.5238 11.8201 35.9079 9.52526 35.9976C7.1438 36.0873 5.33027 33.6262 3.80877 31.4411C0.699615 26.9716 -1.67642 18.8114 1.51399 13.3031C3.09892 10.5677 5.93131 8.83545 9.00562 8.79104C11.3442 8.74668 13.5514 10.3554 14.981 10.3554C16.4098 10.3554 19.092 8.42077 21.9119 8.7049C23.0924 8.75375 26.4061 9.17904 28.5338 12.2759C28.3623 12.3816 24.5799 14.571 24.6211 19.1257V19.1257ZM20.0649 5.74794C21.3293 4.2262 22.1802 2.1078 21.9481 0C20.1256 0.0728312 17.9219 1.20753 16.6147 2.72844C15.4432 4.07527 14.4172 6.23095 14.6941 8.29703C16.7254 8.4533 18.8005 7.27065 20.0649 5.74794Z" fill="#000"/>
</svg>
